X:13
T:The Fatigue or Pioneers March
S:Ashworth's Instructor, p. 32
M:6/8
%%MIDI program 72
%%MIDI transpose 8
L:1/8
K:G
B/c/|dcB cBA|G2G G2B/c/|dcB cBA|G3 zz::G2d Td3|G2e Te3|
G2g fed|ed^c d3|G2d Td3|G2e Te3|G2g fed|ed^c !D.C.!d2||

